**kern	**text
*clefG2	*
*k[f#c#]	*
*M4/4	*
*MM126	*
=1	=1
2r	.
4r	.
8r	.
16r	.
[16dd	い
=2	=2
16ddLL]	.
16dd	つ
16cc#	か
16cc#JJ	ら
16bLL	こ
16b	ん
16a	な
16aJJ	に
8f#L	お
16eL	き
[16dJJ	な
16dLL]	.
16d	お
16f#	も
16f#JJ	い
=3	=3
16eLL	だ
16e	せ
16e	な
16eJJ	い
16eLL	き
16e	お
16e	く
16f#JJ	が
8e'L	あ
16dL	た
[16BJJ	か
16B]	.
16r	.
16r	.
[16dd	ど
=4	=4
16ddLL]	.
16dd	お
16cc#	に
16cc#JJ	も
16bLL	お
16b	ぼ
16a	え
16aJJ	て
16f#LL	な
16f#	い
16e	の
[16dJJ	を
16dLL]	.
16d	ひ
16f#	と
16f#JJ	つ
=5	=5
16eLL	た
16e	し
16e	か
16eJJ	に
16eLL	お
16e	ぼ
16e	え
16f#JJ	て
16eLL	る
16e	ん
16d	だ
*clefF4	*
[16BJJ	な
16B]	.
16r	.
8r	.
=6	=6
16BLL	も
16BJ	う
8d'J	い
*clefG2	*
16eLL	か
16e	い
16b	な
16bJJ	ん
16a#XLL	か
16a#J	い
8b'J	や
8cc#'L	た
8f#J	て
=7	=7
16r	.
16f#LL	お
16f#	も
16f#JJ	い
16f#LL	だ
16f#	す
16e	の
16dJJ	わ
16eLL	そ
16d	の
16e	か
16f#JJ	お
8.f#'L	だ
[16ddJk	そ
=8	=8
16ddLL]	.
16dd	れ
16cc#	で
16cc#JJ	も
16bLL	あ
16b	な
16a	た
16aJJ	が
16f#LL	な
16f#	ん
16e	だ
[16dJJ	か
16dLL]	.
16d	お
16f#	も
16f#JJ	い
=9	=9
16eLL	だ
16e	せ
16e	な
16eJJ	い
16eLL	ま
16e	ま
16e	で
16f#JJ	い
16eLL	る
16e	ん
16d	だ
[16BJJ	な
16B]	.
16r	.
16r	.
[16dd	か
=10	=10
16ddLL]	.
16ddJ	ん
8cc#J	じょ
16bLL	せ
16b	ん
16a	わ
16aJJ	ち
8f#L	きゅ
16eL	ぎ
[16dJJ	を
16dLL]	.
16d	め
16f#	ぐ
16f#JJ	り
=11	=11
16eKL	め
8e'	ぐ
16eJk	て
16eLL	あ
16e	さ
16e	ひ
16f#JJ	お
16eLL	お
16e	う
16d	の
[16BJJ	に
16B]	.
16r	.
16r	.
[16dd	れ
=12	=12
16ddLL]	.
16dd	え
16cc#	る
16cc#JJ	の
16bLL	い
16b	ら
16a	な
16aJJ	い
16f#LL	ぼ
16f#	く
16e	ら
[16dJJ	わ
16dLL]	.
16d	の
16f#	ぞ
16f#JJ	み
=13	=13
16eLL	こ
16e	の
16e	ん
16eJJ	で
16eLL	よ
16e	る
16e	お
16f#JJ	お
16eLL	う
16e	ん
16d	だ
*clefF4	*
[16BJJ	な
16B]	.
16r	.
8r	.
=14	=14
16BLL	も
16BJ	う
8d'J	い
*clefG2	*
16eLL	か
16e	い
16b	な
16bJJ	ん
16a#XLL	ま
16a#	ん
16b	か
16bJJ	い
8cc#'L	や
8f#J	て
=15	=15
16r	.
16f#LL	お
16f#	も
16f#JJ	い
16f#LL	だ
16f#	す
16e	の
16dJJ	わ
16eLL	そ
16d	の
16e	か
16f#JJ	お
8.f#'L	だ
[16ddJk	ま
=16	=16
16ddLL]	.
16dd	ぶ
16cc#	た
16cc#JJ	に
8b'L	の
16aL	た
16aJJ	あ
16f#LL	わ
16f#	い
16e	あ
[16dJJ	め
16dLL]	.
16d	き
16f#	こ
16f#JJ	え
=17	=17
16eLL	な
16e	い
16e	ま
16eJJ	ま
16eLL	し
16e	ん
16e	だ
16f#JJ	く
16eLL	ら
16e	い
16d	こ
[16BJJ	え
16B]	.
16r	.
8r	.
=18	=18
8r	.
8bL	な
8cc#	に
[8ddJ	も
8ddL]	.
8cc#J	し
8aL	ら
16bL	な
16bJJ	い
=19	=19
8r	.
8bL	ま
8cc#	ま
8ddJ	で
8eeL	い
8dd	る
8cc#	の
8aJ	が
=20	=20
8r	.
8bL	あ
8a	な
8gJ	た
8f#L	お
8d	き
8e	ず
8f#J	つ
=21	=21
8fnL	け
8f#X	て
8g#X	わ
8a#XJ	し
8.cc#L	な
16bJk	い
4b	か
=22	=22
8r	.
8bL	そ
8cc#	れ
8ddJ	で
8r	.
8cc#L	い
8a	ま
8bJ	も
=23	=23
8r	.
8bL	ね
8cc#	む
8ddJ	れ
8eeL	な
8dd	い
8cc#	の
8aJ	お
=24	=24
8r	.
8bL	あ
8b	な
8bJ	た
8bL	が
8b	し
8b	れ
8bJ	ば
=25	=25
8a#XL	わ
8g#X	ら
8a#	う
8bJ	だ
8a#L	ろ
8bJ	お
4cc#	か
=26	=26
2r	.
4r	.
8r	.
16bLL	か
16bJJ	ん
=27	=27
16ff#LL	た
16ff#J	ん
8ddJ	な
16bLL	か
16bJ	ん
8ff#J	じょ
8ee'L	ば
8cc#J	か
8r	.
8a	か
=28	=28
16bLL	ぞ
16b	え
16dd	て
16ddJJ	い
8eeL	た
8ff#J	ら
8r	.
8ff#L	あ
8ee'	な
8ddJ	た
=29	=29
8dd'L	が
8bJ	く
16ddKL	れ
8ee	た
[16cc#Jk	た
16cc#LL]	.
16cc#	い
16a	お
16aJJ	ん
16f#KL	ま
8a	で
[16bJk	わ
=30	=30
8bL]	.
16aL	す
16gJJ	れ
16f#KL	て
8d	し
[16eJk	ま
16e]	.
16r	.
4.f#'	た
=31	=31
16ff#LL	ば
16ff#	い
16dd	ば
16ddJJ	い
8bL	も
16ff#L	え
16ff#JJ	い
16eeLL	え
16eeJJ	ん
4ff#	に
8ff#	あ
=32	=32
8ggL	え
8ee	な
8cc#	い
8ddJ	ね
8r	.
8ddL	な
8cc#	ぜ
8aJ	か
=33	=33
16bLL	そ
16bJ	ん
8cc#'J	な
16ddKL	き
8ee	が
[16cc#Jk	す
16cc#LL]	.
16cc#J	ん
8aJ	だ
8f#L	そ
16f#L	お
[16ddJJ	も
=34	=34
16ddLL]	.
16ddJ	え
8cc#J	て
16aKL	し
8f#'	ま
[16aJk	た
16aLL]	.
16aJJ	ん
4b	だ
8f#	う
=35	=35
8bL	ま
8cc#J	く
16ddLL	わ
16ee	ら
16ee	え
16cc#JJ	な
16cc#LL	い
16cc#J	ん
8aJ	だ
8f#L	ど
16f#L	し
[16ddJJ	よ
=36	=36
8ddL]	.
8cc#J	も
16aKL	な
8f#	い
[16aJk	ま
16aLL]	.
16aJJ	ん
4.b'	ま
==	==
*-	*-
